X: 17869
T: Horse Keane's
R: hornpipe
M: 4/4
K: Gmajor
B>cA>B G>AB>d|e>EE>D E2 (3GFE|D>EG>A B>dd>B|B>AG>B A2 D2|
(3BcB (3ABA G>A (3Bcd|e>EE>D E2 (3GFE|D>EG>B A>DF>A|G2 (3AGF G2:|
e2 e>f g>a (3gfe|d>bg>e d>B (3GAB|c2 c>e d>BG>A|B>AA>G A2 d>c|
(3BcB (3ABA G>AB>d|e>EE>D E2 (3GFE|D>EG>B A>DF>A|(3GAB (3AGF G2:|

